meteor/public/images/sofie-logo.svg

<svg enable-background="new 0 0 35 35" viewBox="0 0 35 35" xmlns="http://www.w3.org/2000/svg" xmlns:xlink="http://www.w3.org/1999/xlink"><linearGradient id="a"><stop offset="0" stop-color="#9ccdff" stop-opacity=".5"/><stop offset="1" stop-color="#5ec1ff"/></linearGradient><linearGradient id="b" gradientUnits="userSpaceOnUse" x1="15.3796" x2="28.2641" xlink:href="#a" y1="2.0775" y2="2.0775"/><linearGradient id="c" gradientUnits="userSpaceOnUse" x1="11.9205" x2="31.0453" xlink:href="#a" y1="4.0775" y2="4.0775"/><linearGradient id="d" gradientUnits="userSpaceOnUse" x1="10.0767" x2="32.0767" xlink:href="#a" y1="6.0775" y2="6.0775"/><linearGradient id="e" gradientUnits="userSpaceOnUse" x1="9.1704" x2="17.8267" xlink:href="#a" y1="8.0775" y2="8.0775"/><linearGradient id="f" gradientUnits="userSpaceOnUse" x1="8.7017" x2="16.2485" xlink:href="#a" y1="10.0775" y2="10.0775"/><linearGradient id="g" gradientUnits="userSpaceOnUse" x1="8.5453" x2="17.1704" xlink:href="#a" y1="12.0775" y2="12.0775"/><linearGradient id="h" gradientUnits="userSpaceOnUse" x1="8.9204" x2="21.2642" xlink:href="#a" y1="14.0775" y2="14.0775"/><linearGradient id="i" gradientUnits="userSpaceOnUse" x1="10.0767" x2="26.2641" xlink:href="#a" y1="16.0775" y2="16.0775"/><linearGradient id="j" gradientUnits="userSpaceOnUse" x1="12.1703" x2="28.2642" xlink:href="#a" y1="18.0775" y2="18.0775"/><linearGradient id="k" gradientUnits="userSpaceOnUse" x1="17.1704" x2="29.0453" xlink:href="#a" y1="20.0775" y2="20.0775"/><linearGradient id="l" gradientUnits="userSpaceOnUse" x1="20.4828" x2="29.7642" xlink:href="#a" y1="22.0775" y2="22.0775"/><linearGradient id="m" gradientUnits="userSpaceOnUse" x1="21.1741" x2="29.7642" xlink:href="#a" y1="24.0775" y2="24.0775"/><linearGradient id="n" gradientUnits="userSpaceOnUse" x1="20.0768" x2="28.7642" xlink:href="#a" y1="26.0775" y2="26.0775"/><linearGradient id="o" gradientUnits="userSpaceOnUse" x1="5.4116" x2="12.6241" xlink:href="#a" y1="26.0775" y2="26.0775"/><linearGradient id="p" gradientUnits="userSpaceOnUse" x1="3.8267" x2="27.8579" xlink:href="#a" y1="28.0775" y2="28.0775"/><linearGradient id="q" gradientUnits="userSpaceOnUse" x1="6.3171" x2="25.4645" xlink:href="#a" y1="30.0775" y2="30.0775"/><linearGradient id="r" gradientUnits="userSpaceOnUse" x1="9.5519" x2="20.7642" xlink:href="#a" y1="32.0775" y2="32.0775"/><linearGradient id="s" gradientUnits="userSpaceOnUse" x1="24.4205" x2="31.0453" xlink:href="#a" y1="8.0775" y2="8.0775"/><path d="m27.7 2.6h-11.8c-.3 0-.5-.2-.5-.5s.2-.5.5-.5h11.8c.3 0 .5.2.5.5.1.3-.2.5-.5.5z" fill="url(#b)"/><path d="m30.5 4.6h-18c-.3 0-.5-.2-.5-.5s.2-.5.5-.5h18c.3 0 .5.2.5.5s-.2.5-.5.5z" fill="url(#c)"/><path d="m31.5 6.6h-20.9c-.3 0-.5-.2-.5-.5s.2-.5.5-.5h20.9c.3 0 .5.2.5.5.1.3-.2.5-.5.5z" fill="url(#d)"/><path d="m17.3 8.6h-7.6c-.3 0-.5-.2-.5-.5s.2-.5.5-.5h7.6c.3 0 .5.2.5.5s-.2.5-.5.5z" fill="url(#e)"/><path d="m15.7 10.6h-6.4c-.3 0-.5-.2-.5-.5s.2-.5.5-.5h6.4c.3 0 .6.2.6.5-.1.3-.3.5-.6.5z" fill="url(#f)"/><path d="m16.6 12.6h-7.5c-.3 0-.5-.2-.5-.5s.2-.5.5-.5h7.5c.3 0 .5.2.5.5.1.3-.2.5-.5.5z" fill="url(#g)"/><path d="m20.7 14.6h-11.2c-.3 0-.5-.2-.5-.5s.2-.5.5-.5h11.2c.3 0 .5.2.5.5.1.3-.2.5-.5.5z" fill="url(#h)"/><path d="m25.7 16.6h-15.1c-.3 0-.5-.2-.5-.5s.2-.5.5-.5h15.1c.3 0 .5.2.5.5.1.3-.2.5-.5.5z" fill="url(#i)"/><path d="m27.7 18.6h-15c-.3 0-.5-.2-.5-.5s.2-.5.5-.5h15c.3 0 .5.2.5.5.1.3-.2.5-.5.5z" fill="url(#j)"/><path d="m28.5 20.6h-10.8c-.3 0-.5-.2-.5-.5s.2-.5.5-.5h10.8c.3 0 .5.2.5.5s-.2.5-.5.5z" fill="url(#k)"/><path d="m29.2 22.6h-8.2c-.3 0-.5-.2-.5-.5s.2-.5.5-.5h8.2c.3 0 .5.2.5.5.1.3-.2.5-.5.5z" fill="url(#l)"/><path d="m29.2 24.6h-7.5c-.3 0-.5-.2-.5-.5s.2-.5.5-.5h7.5c.3 0 .5.2.5.5.1.3-.2.5-.5.5z" fill="url(#m)"/><path d="m28.2 26.6h-7.6c-.3 0-.5-.2-.5-.5s.2-.5.5-.5h7.6c.3 0 .5.2.5.5.1.3-.2.5-.5.5z" fill="url(#n)"/><path d="m12.1 26.6h-6.1c-.3 0-.5-.2-.5-.5s.2-.5.5-.5h6.1c.3 0 .5.2.5.5s-.2.5-.5.5z" fill="url(#o)"/><path d="m27.3 28.6h-22.9c-.3 0-.5-.2-.5-.5s.2-.5.5-.5h22.9c.3 0 .5.2.5.5.1.3-.2.5-.5.5z" fill="url(#p)"/><path d="m24.9 30.6h-18c-.3 0-.5-.2-.5-.5s.2-.5.5-.5h18c.3 0 .5.2.5.5.1.3-.2.5-.5.5z" fill="url(#q)"/><path d="m20.2 32.6h-10.1c-.3 0-.5-.2-.5-.5s.2-.6.5-.6h10.1c.3 0 .5.2.5.6.1.3-.2.5-.5.5z" fill="url(#r)"/><path d="m30.5 8.6h-5.5c-.3 0-.5-.2-.5-.5s.2-.5.5-.5h5.5c.3 0 .5.2.5.5s-.2.5-.5.5z" fill="url(#s)"/></svg>

<?xml version="1.0" encoding="utf-8"?>
<!-- Generator: Adobe Illustrator 22.1.0, SVG Export Plug-In . SVG Version: 6.00 Build 0)  -->
<svg version="1.1" id="Sofie" xmlns="http://www.w3.org/2000/svg" xmlns:xlink="http://www.w3.org/1999/xlink" x="0px" y="0px"
	 viewBox="0 0 35 35" style="enable-background:new 0 0 35 35;" xml:space="preserve">
<style type="text/css">
	.st0{fill:url(#SVGID_1_);}
	.st1{fill:url(#SVGID_2_);}
	.st2{fill:url(#SVGID_3_);}
	.st3{fill:url(#SVGID_4_);}
	.st4{fill:url(#SVGID_5_);}
	.st5{fill:url(#SVGID_6_);}
	.st6{fill:url(#SVGID_7_);}
	.st7{fill:url(#SVGID_8_);}
	.st8{fill:url(#SVGID_9_);}
	.st9{fill:url(#SVGID_10_);}
	.st10{fill:url(#SVGID_11_);}
	.st11{fill:url(#SVGID_12_);}
	.st12{fill:url(#SVGID_13_);}
	.st13{fill:url(#SVGID_14_);}
	.st14{fill:url(#SVGID_15_);}
	.st15{fill:url(#SVGID_16_);}
	.st16{fill:url(#SVGID_17_);}
	.st17{fill:url(#SVGID_18_);}
</style>
<linearGradient id="SVGID_1_" gradientUnits="userSpaceOnUse" x1="15.3796" y1="2.0775" x2="28.2641" y2="2.0775">
	<stop  offset="0" style="stop-color:#9CCDFF;stop-opacity:0.5"/>
	<stop  offset="1" style="stop-color:#5EC1FF"/>
</linearGradient>
<path class="st0" d="M27.7,2.6H15.9c-0.3,0-0.5-0.2-0.5-0.5v0c0-0.3,0.2-0.5,0.5-0.5h11.8c0.3,0,0.5,0.2,0.5,0.5v0
	C28.3,2.4,28,2.6,27.7,2.6z"/>
<linearGradient id="SVGID_2_" gradientUnits="userSpaceOnUse" x1="11.9205" y1="4.0775" x2="31.0453" y2="4.0775">
	<stop  offset="0" style="stop-color:#9CCDFF;stop-opacity:0.5"/>
	<stop  offset="1" style="stop-color:#5EC1FF"/>
</linearGradient>
<path class="st1" d="M30.5,4.6h-18c-0.3,0-0.5-0.2-0.5-0.5v0c0-0.3,0.2-0.5,0.5-0.5h18c0.3,0,0.5,0.2,0.5,0.5v0
	C31,4.4,30.8,4.6,30.5,4.6z"/>
<linearGradient id="SVGID_3_" gradientUnits="userSpaceOnUse" x1="10.0767" y1="6.0775" x2="32.0767" y2="6.0775">
	<stop  offset="0" style="stop-color:#9CCDFF;stop-opacity:0.5"/>
	<stop  offset="1" style="stop-color:#5EC1FF"/>
</linearGradient>
<path class="st2" d="M31.5,6.6H10.6c-0.3,0-0.5-0.2-0.5-0.5v0c0-0.3,0.2-0.5,0.5-0.5h20.9c0.3,0,0.5,0.2,0.5,0.5v0
	C32.1,6.4,31.8,6.6,31.5,6.6z"/>
<linearGradient id="SVGID_4_" gradientUnits="userSpaceOnUse" x1="9.1704" y1="8.0775" x2="17.8267" y2="8.0775">
	<stop  offset="0" style="stop-color:#9CCDFF;stop-opacity:0.5"/>
	<stop  offset="1" style="stop-color:#5EC1FF"/>
</linearGradient>
<path class="st3" d="M17.3,8.6H9.7c-0.3,0-0.5-0.2-0.5-0.5v0c0-0.3,0.2-0.5,0.5-0.5h7.6c0.3,0,0.5,0.2,0.5,0.5v0
	C17.8,8.4,17.6,8.6,17.3,8.6z"/>
<linearGradient id="SVGID_5_" gradientUnits="userSpaceOnUse" x1="8.7017" y1="10.0775" x2="16.2485" y2="10.0775">
	<stop  offset="0" style="stop-color:#9CCDFF;stop-opacity:0.5"/>
	<stop  offset="1" style="stop-color:#5EC1FF"/>
</linearGradient>
<path class="st4" d="M15.7,10.6H9.3c-0.3,0-0.5-0.2-0.5-0.5v0c0-0.3,0.2-0.5,0.5-0.5h6.4c0.3,0,0.6,0.2,0.6,0.5v0
	C16.2,10.4,16,10.6,15.7,10.6z"/>
<linearGradient id="SVGID_6_" gradientUnits="userSpaceOnUse" x1="8.5453" y1="12.0775" x2="17.1704" y2="12.0775">
	<stop  offset="0" style="stop-color:#9CCDFF;stop-opacity:0.5"/>
	<stop  offset="1" style="stop-color:#5EC1FF"/>
</linearGradient>
<path class="st5" d="M16.6,12.6H9.1c-0.3,0-0.5-0.2-0.5-0.5v0c0-0.3,0.2-0.5,0.5-0.5h7.5c0.3,0,0.5,0.2,0.5,0.5v0
	C17.2,12.4,16.9,12.6,16.6,12.6z"/>
<linearGradient id="SVGID_7_" gradientUnits="userSpaceOnUse" x1="8.9204" y1="14.0775" x2="21.2642" y2="14.0775">
	<stop  offset="0" style="stop-color:#9CCDFF;stop-opacity:0.5"/>
	<stop  offset="1" style="stop-color:#5EC1FF"/>
</linearGradient>
<path class="st6" d="M20.7,14.6H9.5c-0.3,0-0.5-0.2-0.5-0.5v0c0-0.3,0.2-0.5,0.5-0.5h11.2c0.3,0,0.5,0.2,0.5,0.5v0
	C21.3,14.4,21,14.6,20.7,14.6z"/>
<linearGradient id="SVGID_8_" gradientUnits="userSpaceOnUse" x1="10.0767" y1="16.0775" x2="26.2641" y2="16.0775">
	<stop  offset="0" style="stop-color:#9CCDFF;stop-opacity:0.5"/>
	<stop  offset="1" style="stop-color:#5EC1FF"/>
</linearGradient>
<path class="st7" d="M25.7,16.6H10.6c-0.3,0-0.5-0.2-0.5-0.5v0c0-0.3,0.2-0.5,0.5-0.5h15.1c0.3,0,0.5,0.2,0.5,0.5v0
	C26.3,16.4,26,16.6,25.7,16.6z"/>
<linearGradient id="SVGID_9_" gradientUnits="userSpaceOnUse" x1="12.1703" y1="18.0775" x2="28.2642" y2="18.0775">
	<stop  offset="0" style="stop-color:#9CCDFF;stop-opacity:0.5"/>
	<stop  offset="1" style="stop-color:#5EC1FF"/>
</linearGradient>
<path class="st8" d="M27.7,18.6h-15c-0.3,0-0.5-0.2-0.5-0.5v0c0-0.3,0.2-0.5,0.5-0.5h15c0.3,0,0.5,0.2,0.5,0.5v0
	C28.3,18.4,28,18.6,27.7,18.6z"/>
<linearGradient id="SVGID_10_" gradientUnits="userSpaceOnUse" x1="17.1704" y1="20.0775" x2="29.0453" y2="20.0775">
	<stop  offset="0" style="stop-color:#9CCDFF;stop-opacity:0.5"/>
	<stop  offset="1" style="stop-color:#5EC1FF"/>
</linearGradient>
<path class="st9" d="M28.5,20.6H17.7c-0.3,0-0.5-0.2-0.5-0.5v0c0-0.3,0.2-0.5,0.5-0.5h10.8c0.3,0,0.5,0.2,0.5,0.5v0
	C29,20.4,28.8,20.6,28.5,20.6z"/>
<linearGradient id="SVGID_11_" gradientUnits="userSpaceOnUse" x1="20.4828" y1="22.0775" x2="29.7642" y2="22.0775">
	<stop  offset="0" style="stop-color:#9CCDFF;stop-opacity:0.5"/>
	<stop  offset="1" style="stop-color:#5EC1FF"/>
</linearGradient>
<path class="st10" d="M29.2,22.6H21c-0.3,0-0.5-0.2-0.5-0.5v0c0-0.3,0.2-0.5,0.5-0.5h8.2c0.3,0,0.5,0.2,0.5,0.5v0
	C29.8,22.4,29.5,22.6,29.2,22.6z"/>
<linearGradient id="SVGID_12_" gradientUnits="userSpaceOnUse" x1="21.1741" y1="24.0775" x2="29.7642" y2="24.0775">
	<stop  offset="0" style="stop-color:#9CCDFF;stop-opacity:0.5"/>
	<stop  offset="1" style="stop-color:#5EC1FF"/>
</linearGradient>
<path class="st11" d="M29.2,24.6h-7.5c-0.3,0-0.5-0.2-0.5-0.5v0c0-0.3,0.2-0.5,0.5-0.5h7.5c0.3,0,0.5,0.2,0.5,0.5v0
	C29.8,24.4,29.5,24.6,29.2,24.6z"/>
<linearGradient id="SVGID_13_" gradientUnits="userSpaceOnUse" x1="20.0768" y1="26.0775" x2="28.7642" y2="26.0775">
	<stop  offset="0" style="stop-color:#9CCDFF;stop-opacity:0.5"/>
	<stop  offset="1" style="stop-color:#5EC1FF"/>
</linearGradient>
<path class="st12" d="M28.2,26.6h-7.6c-0.3,0-0.5-0.2-0.5-0.5v0c0-0.3,0.2-0.5,0.5-0.5h7.6c0.3,0,0.5,0.2,0.5,0.5v0
	C28.8,26.4,28.5,26.6,28.2,26.6z"/>
<linearGradient id="SVGID_14_" gradientUnits="userSpaceOnUse" x1="5.4116" y1="26.0775" x2="12.6241" y2="26.0775">
	<stop  offset="0" style="stop-color:#9CCDFF;stop-opacity:0.5"/>
	<stop  offset="1" style="stop-color:#5EC1FF"/>
</linearGradient>
<path class="st13" d="M12.1,26.6H6c-0.3,0-0.5-0.2-0.5-0.5v0c0-0.3,0.2-0.5,0.5-0.5h6.1c0.3,0,0.5,0.2,0.5,0.5v0
	C12.6,26.4,12.4,26.6,12.1,26.6z"/>
<linearGradient id="SVGID_15_" gradientUnits="userSpaceOnUse" x1="3.8267" y1="28.0775" x2="27.8579" y2="28.0775">
	<stop  offset="0" style="stop-color:#9CCDFF;stop-opacity:0.5"/>
	<stop  offset="1" style="stop-color:#5EC1FF"/>
</linearGradient>
<path class="st14" d="M27.3,28.6H4.4c-0.3,0-0.5-0.2-0.5-0.5v0c0-0.3,0.2-0.5,0.5-0.5h22.9c0.3,0,0.5,0.2,0.5,0.5v0
	C27.9,28.4,27.6,28.6,27.3,28.6z"/>
<linearGradient id="SVGID_16_" gradientUnits="userSpaceOnUse" x1="6.3171" y1="30.0775" x2="25.4645" y2="30.0775">
	<stop  offset="0" style="stop-color:#9CCDFF;stop-opacity:0.5"/>
	<stop  offset="1" style="stop-color:#5EC1FF"/>
</linearGradient>
<path class="st15" d="M24.9,30.6h-18c-0.3,0-0.5-0.2-0.5-0.5v0c0-0.3,0.2-0.5,0.5-0.5h18c0.3,0,0.5,0.2,0.5,0.5v0
	C25.5,30.4,25.2,30.6,24.9,30.6z"/>
<linearGradient id="SVGID_17_" gradientUnits="userSpaceOnUse" x1="9.5519" y1="32.0775" x2="20.7642" y2="32.0775">
	<stop  offset="0" style="stop-color:#9CCDFF;stop-opacity:0.5"/>
	<stop  offset="1" style="stop-color:#5EC1FF"/>
</linearGradient>
<path class="st16" d="M20.2,32.6H10.1c-0.3,0-0.5-0.2-0.5-0.5l0,0c0-0.3,0.2-0.6,0.5-0.6h10.1c0.3,0,0.5,0.2,0.5,0.6l0,0
	C20.8,32.4,20.5,32.6,20.2,32.6z"/>
<linearGradient id="SVGID_18_" gradientUnits="userSpaceOnUse" x1="24.4205" y1="8.0775" x2="31.0453" y2="8.0775">
	<stop  offset="0" style="stop-color:#9CCDFF;stop-opacity:0.5"/>
	<stop  offset="1" style="stop-color:#5EC1FF"/>
</linearGradient>
<path class="st17" d="M30.5,8.6H25c-0.3,0-0.5-0.2-0.5-0.5v0c0-0.3,0.2-0.5,0.5-0.5h5.5c0.3,0,0.5,0.2,0.5,0.5v0
	C31,8.4,30.8,8.6,30.5,8.6z"/>
</svg>
